X: 3
T: The Humours Of Westport
R: reel
M: 4/4
L: 1/8
K: Fmaj
|AFcF dFcF|AFcF BdcB|AFcF dFcF|BAGA BdcB|
AFcF dFcF|AFcF BdcB|Acfa gefc|BAGA Bcde||
|f2 fe fcAc|f2 cf efge|f2 fe fcAc|BAGA Bcde|
f2 fe fcAc|f2 cf efg2|afge fcAc|BAGA BdcB||


Tune 47	Setting 29244

